kora-green/apps/symbolic/preferences-system-devices-symbolic.svg

<svg xmlns="http://www.w3.org/2000/svg" width="16" height="16" version="1.1">
 <path style="fill:#444444" d="M 3 1 L 3 2 L 5 2 L 7 2 L 7 1 L 5 1 L 3 1 z M 2 3 C 1.446 3 1 3.446 1 4 L 1 6 C 1 6.554 1.446 7 2 7 L 2 6 L 5 6 L 5.1347656 6 C 5.147007 5.9695094 5.1572719 5.939326 5.171875 5.9082031 C 5.358897 5.5096125 5.9572923 5 6.625 5 L 9 5 L 9 4 C 9 3.446 8.554 3 8 3 L 7 3 L 5 3 L 3 3 L 2 3 z M 6.625 6 C 6 6 6 6.6660156 6 6.6660156 L 6 13.333984 C 6 14.00065 6.625 14 6.625 14 L 9.6386719 14 C 9.5110679 14.006836 9 14.0625 9 14.5 L 9 15 L 13 15 L 13 14.5 C 13 14.0625 12.488932 14.006836 12.361328 14 L 15.375 14 C 16 14 16 13.333984 16 13.333984 L 16 6.6660156 C 16 6.6660156 16 6 15.375 6 L 6.625 6 z M 3 7 L 3 10 L 5 10 L 5 7 L 3 7 z M 8 8 L 14 8 L 14 12 L 8 12 L 8 8 z"/>
</svg>

<svg clip-rule="evenodd" fill-rule="evenodd" stroke-linejoin="round" stroke-miterlimit="2" viewBox="0 0 16 16" xmlns="http://www.w3.org/2000/svg">
 <g fill="#dfdfdf" fill-rule="nonzero">
  <path d="m2 3c-.554 0-1 .446-1 1v2c0 .554.446 1 1 1v-1h3.538c.148-.385.318-.664 1.087-.68h2.375v-1.32c0-.554-.446-1-1-1zm4.625 3c-.625 0-.625.666-.625.666v6.668c0 .667.625.666.625.666h3.014c-.128.007-.639.063-.639.5v.5h4v-.5c0-.437-.511-.493-.639-.5h3.014c.625 0 .625-.666.625-.666v-6.668s0-.666-.625-.666zm.35.998h8.05v6.004h-8.05z"/>
  <path d="m3 1v1.727h4v-1.727zm-.405 5.521v3.479h2.405v-3.479z" fill-opacity=".3"/>
 </g>
</svg>
